!!!COM: Anon.
!!!OTL: Valdomira chegou a seu quarto
!!!OTL: Romanceiro Folclorico do Brasil
!!!CNT: Brasil
!!!OCY: Brasil
!!!ODT: <1971///
!!!PSR: Irmaos Vitale
!!!PSP: Sao Paulo, Brasil
!!!PDT: 1952///
!!!PPE: Rossini Tavares de Lima
!!!PPG: page 27
!! Romance: Silvaninha
!! Place: Araraquara, Sao Paulo, Brasil
**kern
*clefG2
*k[f#c#]
*M3/4
*MM100
=1-
2c#
4f#
=
4a
4a
4a
=
4b
4b
4a
=
4f#
2d
=
4r
4d
4f#
=
4a
4a
4a
=
2b
4a
=
4g
2e
=
4r
4e
4g
=
4a
4a
4a
=
2b
4dd
=
4cc#
2cc#
=
4r
4cc#
4b
=
2a
4b
=
2a
4a
=
4f#
2d
==
*-
